app/img/_src/main/advantages-list/advantages-4.svg

<svg width="53" height="80" viewBox="0 0 53 80" fill="none" xmlns="http://www.w3.org/2000/svg">
<path d="M37.6851 32.2052L51.3051 8.6145L49.7737 2.89978L44.7505 0L36.9526 13.5071V10.387C36.9526 4.77966 32.3903 0.217895 26.783 0.217895C21.1757 0.217895 16.6139 4.77966 16.6139 10.387V13.5095L8.81421 0L3.79102 2.89978L2.26025 8.6145L15.8815 32.2076V49.74L0.734375 75.5573L8.31433 80L12.8059 78.8281L25.2003 57.6788H28.3662L40.7606 78.8281L45.2522 80L52.8322 75.5573L37.6851 49.74V32.2052ZM21.064 24.7314H22.9377L22.9506 24.7443H23.7782V28.396H23.8966L23.6366 30.6305L21.064 24.7314ZM27.4434 26.0522H26.1219V24.7443H27.4434V26.0522ZM25.4988 34.9005L26.2568 28.396H27.3085L28.0665 34.9005L26.9752 37.4036H26.5901L25.4988 34.9005ZM29.6681 28.396H29.7871V24.7443H30.616L30.6288 24.7314H32.5007L29.9281 30.6305L29.6681 28.396ZM26.783 2.56165C31.0981 2.56165 34.6083 6.07239 34.6083 10.387V17.4371L29.6583 22.3871H23.9082L18.9583 17.4371V10.387C18.9583 6.07239 22.4684 2.56165 26.783 2.56165ZM49.6235 74.7211L44.9043 77.4872L42.292 76.8054L29.709 55.3351H23.8575L11.2745 76.8054L8.66162 77.4872L3.94238 74.7211L18.2252 49.9463V31.5796L4.77551 8.28369L5.80396 4.44458L7.95605 3.2019L19.0327 22.3871H17.4849L25.0551 39.7473H28.5096L36.0798 22.3871H34.532L45.6086 3.2019L47.7607 4.44458L48.7898 8.28369L35.3407 31.5771V50.3766L49.6235 74.7211Z" fill="#444444"/>
</svg>

<svg width="53" height="80" fill="none" xmlns="http://www.w3.org/2000/svg"><path d="M37.685 32.205l13.62-23.59L49.774 2.9 44.75 0l-7.798 13.507v-3.12c0-5.607-4.563-10.17-10.17-10.17s-10.17 4.563-10.17 10.17v3.122L8.815 0 3.791 2.9l-1.53 5.714 13.62 23.594V49.74L.734 75.557 8.314 80l4.492-1.172L25.2 57.678h3.166l12.395 21.15L45.252 80l7.58-4.443L37.685 49.74V32.205zm-16.621-7.474h1.874l.013.013h.827v3.652h.119l-.26 2.235-2.573-5.9zm6.38 1.321h-1.322v-1.308h1.321v1.308zm-1.945 8.849l.758-6.505h1.051l.759 6.505-1.092 2.503h-.385L25.5 34.9zm4.17-6.505h.118v-3.652h.829l.013-.013H32.5l-2.573 5.9-.26-2.235zM26.782 2.562c4.315 0 7.825 3.51 7.825 7.825v7.05l-4.95 4.95h-5.75l-4.95-4.95v-7.05c0-4.315 3.51-7.825 7.825-7.825zm22.84 72.16l-4.719 2.765-2.612-.682-12.583-21.47h-5.851l-12.584 21.47-2.612.682-4.72-2.766 14.283-24.775V31.58L4.775 8.284l1.029-3.84 2.152-1.242 11.077 19.185h-1.548l7.57 17.36h3.455l7.57-17.36h-1.548L45.609 3.202l2.152 1.243 1.029 3.839-13.45 23.293v18.8L49.624 74.72z" fill="#444"/></svg>
